icons/svg/poi_colored/pipeline_substation.svg

<?xml version="1.0" encoding="UTF-8" standalone="no"?>
<!-- Created with Inkscape (http://www.inkscape.org/) -->

<svg
   xmlns:dc="http://purl.org/dc/elements/1.1/"
   xmlns:cc="http://creativecommons.org/ns#"
   xmlns:rdf="http://www.w3.org/1999/02/22-rdf-syntax-ns#"
   xmlns:svg="http://www.w3.org/2000/svg"
   xmlns="http://www.w3.org/2000/svg"
   xmlns:sodipodi="http://sodipodi.sourceforge.net/DTD/sodipodi-0.dtd"
   xmlns:inkscape="http://www.inkscape.org/namespaces/inkscape"
   version="1.0"
   width="580"
   height="580"
   id="svg2"
   sodipodi:version="0.32"
   inkscape:version="0.92.3 (2405546, 2018-03-11)"
   sodipodi:docname="pipeline_substation.svg"
   inkscape:output_extension="org.inkscape.output.svg.inkscape">
  <metadata
     id="metadata2975">
    <rdf:RDF>
      <cc:Work
         rdf:about="">
        <dc:format>image/svg+xml</dc:format>
        <dc:type
           rdf:resource="http://purl.org/dc/dcmitype/StillImage" />
        <cc:license
           rdf:resource="http://web.resource.org/cc/PublicDomain" />
        <dc:language>en</dc:language>
        <dc:title />
      </cc:Work>
    </rdf:RDF>
  </metadata>
  <sodipodi:namedview
     inkscape:window-height="1006"
     inkscape:window-width="1920"
     inkscape:pageshadow="2"
     inkscape:pageopacity="0.0"
     guidetolerance="10.0"
     gridtolerance="10.0"
     objecttolerance="10.0"
     borderopacity="1.0"
     bordercolor="#666666"
     pagecolor="#ffffff"
     id="base"
     inkscape:zoom="0.92167715"
     inkscape:cx="219.95735"
     inkscape:cy="313.50733"
     inkscape:window-x="1920"
     inkscape:window-y="0"
     inkscape:current-layer="svg2"
     showgrid="false"
     inkscape:window-maximized="1" />
  <defs
     id="defs4">
    <inkscape:perspective
       sodipodi:type="inkscape:persp3d"
       inkscape:vp_x="0 : 290 : 1"
       inkscape:vp_y="0 : 1000 : 0"
       inkscape:vp_z="580 : 290 : 1"
       inkscape:persp3d-origin="290 : 193.33333 : 1"
       id="perspective2441" />
    <inkscape:perspective
       id="perspective3452"
       inkscape:persp3d-origin="30 : 20 : 1"
       inkscape:vp_z="60 : 30 : 1"
       inkscape:vp_y="0 : 1000 : 0"
       inkscape:vp_x="0 : 30 : 1"
       sodipodi:type="inkscape:persp3d" />
    <symbol
       viewBox="244.5 110 489 219.9"
       id="symbol-university">
      <path
         id="path4460"
         d="M79,43l57,119c0,0,21-96,104-96s124,106,124,106l43-133l82-17L0,17L79,43z" />
      <path
         id="path4462"
         d="M94,176l-21,39"
         stroke-width="20"
         stroke="#000000"
         fill="none" />
      <path
         id="path4464"
         d="M300,19c0,10.5-22.6,19-50.5,19S199,29.5,199,19s22.6-19,50.5-19S300,8.5,300,19z" />
      <path
         id="path4466"
         d="M112,216l-16-38L64,88c0,0-9-8-4-35s16-24,16-24"
         stroke-width="20"
         stroke="#000000"
         ill="none" />
    </symbol>
    <inkscape:perspective
       id="perspective4471"
       inkscape:persp3d-origin="372.04724 : 350.78739 : 1"
       inkscape:vp_z="744.09448 : 526.18109 : 1"
       inkscape:vp_y="0 : 1000 : 0"
       inkscape:vp_x="0 : 526.18109 : 1"
       sodipodi:type="inkscape:persp3d" />
    <inkscape:perspective
       id="perspective4668"
       inkscape:persp3d-origin="6 : 4 : 1"
       inkscape:vp_z="12 : 6 : 1"
       inkscape:vp_y="0 : 1000 : 0"
       inkscape:vp_x="0 : 6 : 1"
       sodipodi:type="inkscape:persp3d" />
    <inkscape:perspective
       id="perspective4904"
       inkscape:persp3d-origin="16 : 10.666667 : 1"
       inkscape:vp_z="32 : 16 : 1"
       inkscape:vp_y="0 : 1000 : 0"
       inkscape:vp_x="0 : 16 : 1"
       sodipodi:type="inkscape:persp3d" />
    <marker
       style="overflow:visible;"
       id="Arrow2Lend"
       refX="0.0"
       refY="0.0"
       orient="auto"
       inkscape:stockid="Arrow2Lend">
      <path
         transform="scale(1.1) rotate(180) translate(1,0)"
         d="M 8.7185878,4.0337352 L -2.2072895,0.016013256 L 8.7185884,-4.0017078 C 6.9730900,-1.6296469 6.9831476,1.6157441 8.7185878,4.0337352 z "
         style="font-size:12.0;fill-rule:evenodd;stroke-width:0.62500000;stroke-linejoin:round;"
         id="path4137" />
    </marker>
    <marker
       style="overflow:visible;"
       id="Arrow1Mend"
       refX="0.0"
       refY="0.0"
       orient="auto"
       inkscape:stockid="Arrow1Mend">
      <path
         transform="scale(0.4) rotate(180) translate(10,0)"
         style="fill-rule:evenodd;stroke:#000000;stroke-width:1.0pt;marker-start:none;"
         d="M 0.0,0.0 L 5.0,-5.0 L -12.5,0.0 L 5.0,5.0 L 0.0,0.0 z "
         id="path4125" />
    </marker>
    <marker
       style="overflow:visible"
       id="TriangleOutL"
       refX="0.0"
       refY="0.0"
       orient="auto"
       inkscape:stockid="TriangleOutL">
      <path
         transform="scale(0.8)"
         style="fill-rule:evenodd;stroke:#000000;stroke-width:1.0pt;marker-start:none"
         d="M 5.77,0.0 L -2.88,5.0 L -2.88,-5.0 L 5.77,0.0 z "
         id="path4214" />
    </marker>
    <marker
       style="overflow:visible;"
       id="Arrow1Lend"
       refX="0.0"
       refY="0.0"
       orient="auto"
       inkscape:stockid="Arrow1Lend">
      <path
         transform="scale(0.8) rotate(180) translate(12.5,0)"
         style="fill-rule:evenodd;stroke:#000000;stroke-width:1.0pt;marker-start:none;"
         d="M 0.0,0.0 L 5.0,-5.0 L -12.5,0.0 L 5.0,5.0 L 0.0,0.0 z "
         id="path4119" />
    </marker>
    <marker
       style="overflow:visible"
       id="Tail"
       refX="0.0"
       refY="0.0"
       orient="auto"
       inkscape:stockid="Tail">
      <g
         transform="scale(-1.2)"
         id="g4152">
        <path
           style="fill:none;fill-rule:evenodd;stroke:#000000;stroke-width:0.8;marker-start:none;marker-end:none;stroke-linecap:round"
           d="M -3.8048674,-3.9585227 L 0.54352094,0"
           id="path4154" />
        <path
           style="fill:none;fill-rule:evenodd;stroke:#000000;stroke-width:0.8;marker-start:none;marker-end:none;stroke-linecap:round"
           d="M -1.2866832,-3.9585227 L 3.0617053,0"
           id="path4156" />
        <path
           style="fill:none;fill-rule:evenodd;stroke:#000000;stroke-width:0.8;marker-start:none;marker-end:none;stroke-linecap:round"
           d="M 1.3053582,-3.9585227 L 5.6537466,0"
           id="path4158" />
        <path
           style="fill:none;fill-rule:evenodd;stroke:#000000;stroke-width:0.8;marker-start:none;marker-end:none;stroke-linecap:round"
           d="M -3.8048674,4.1775838 L 0.54352094,0.21974226"
           id="path4160" />
        <path
           style="fill:none;fill-rule:evenodd;stroke:#000000;stroke-width:0.8;marker-start:none;marker-end:none;stroke-linecap:round"
           d="M -1.2866832,4.1775838 L 3.0617053,0.21974226"
           id="path4162" />
        <path
           style="fill:none;fill-rule:evenodd;stroke:#000000;stroke-width:0.8;marker-start:none;marker-end:none;stroke-linecap:round"
           d="M 1.3053582,4.1775838 L 5.6537466,0.21974226"
           id="path4164" />
      </g>
    </marker>
    <marker
       style="overflow:visible"
       id="Arrow1Sstart"
       refX="0.0"
       refY="0.0"
       orient="auto"
       inkscape:stockid="Arrow1Sstart">
      <path
         transform="scale(0.2) translate(6,0)"
         style="fill-rule:evenodd;stroke:#000000;stroke-width:1.0pt;marker-start:none"
         d="M 0.0,0.0 L 5.0,-5.0 L -12.5,0.0 L 5.0,5.0 L 0.0,0.0 z "
         id="path4128" />
    </marker>
    <marker
       style="overflow:visible;"
       id="Arrow1Send"
       refX="0.0"
       refY="0.0"
       orient="auto"
       inkscape:stockid="Arrow1Send">
      <path
         transform="scale(0.2) rotate(180) translate(6,0)"
         style="fill-rule:evenodd;stroke:#000000;stroke-width:1.0pt;marker-start:none;"
         d="M 0.0,0.0 L 5.0,-5.0 L -12.5,0.0 L 5.0,5.0 L 0.0,0.0 z "
         id="path4131" />
    </marker>
    <marker
       style="overflow:visible"
       id="SemiCircleOut"
       refX="0.0"
       refY="0.0"
       orient="auto"
       inkscape:stockid="SemiCircleOut">
      <path
         transform="scale(0.6) translate(7.125493,0.763446)"
         style="fill-rule:evenodd;stroke:#000000;stroke-width:1.0pt;marker-start:none;marker-end:none"
         d="M -2.5,-0.80913858 C -2.5,1.9508614 -4.7400000,4.1908614 -7.5,4.1908614 L -7.5,-5.8091386 C -4.7400000,-5.8091386 -2.5,-3.5691386 -2.5,-0.80913858 z "
         id="path4235" />
    </marker>
    <marker
       style="overflow:visible;"
       id="Arrow2Send"
       refX="0.0"
       refY="0.0"
       orient="auto"
       inkscape:stockid="Arrow2Send">
      <path
         transform="scale(0.3) rotate(180) translate(-2.3,0)"
         d="M 8.7185878,4.0337352 L -2.2072895,0.016013256 L 8.7185884,-4.0017078 C 6.9730900,-1.6296469 6.9831476,1.6157441 8.7185878,4.0337352 z "
         style="font-size:12.0;fill-rule:evenodd;stroke-width:0.62500000;stroke-linejoin:round;"
         id="path4149" />
    </marker>
    <marker
       style="overflow:visible"
       id="TriangleOutS"
       refX="0.0"
       refY="0.0"
       orient="auto"
       inkscape:stockid="TriangleOutS">
      <path
         transform="scale(0.2)"
         style="fill-rule:evenodd;stroke:#000000;stroke-width:1.0pt;marker-start:none"
         d="M 5.77,0.0 L -2.88,5.0 L -2.88,-5.0 L 5.77,0.0 z "
         id="path4220" />
    </marker>
    <marker
       style="overflow:visible"
       id="CurveIn"
       refX="0.0"
       refY="0.0"
       orient="auto"
       inkscape:stockid="CurveIn">
      <path
         transform="scale(0.6)"
         style="fill-rule:evenodd;stroke:#000000;stroke-width:1.0pt;marker-start:none;marker-end:none;fill:none"
         d="M 4.6254930,-5.0456926 C 1.8654930,-5.0456926 -0.37450702,-2.8056926 -0.37450702,-0.045692580 C -0.37450702,2.7143074 1.8654930,4.9543074 4.6254930,4.9543074"
         id="path4238" />
    </marker>
    <marker
       orient="auto"
       refY="0"
       refX="0"
       id="InfiniteLineStart"
       inkscape:stockid="InfiniteLineStart"
       style="overflow:visible">
      <g
         transform="translate(-13,0)"
         id="g4298">
        <circle
           cx="3"
           cy="0"
           r="0.8"
           id="circle4300" />
        <circle
           cx="6.5"
           cy="0"
           r="0.8"
           id="circle4302" />
        <circle
           cx="10"
           cy="0"
           r="0.8"
           id="circle4304" />
      </g>
    </marker>
    <marker
       style="overflow:visible"
       id="StopS"
       refX="0.0"
       refY="0.0"
       orient="auto"
       inkscape:stockid="StopS">
      <path
         transform="scale(0.2)"
         style="fill:none;fill-opacity:0.75000000;fill-rule:evenodd;stroke:#000000;stroke-width:1.0pt"
         d="M 0.0,5.65 L 0.0,-5.65"
         id="path4229" />
    </marker>
    <marker
       style="overflow:visible"
       id="Arrow2Sstart"
       refX="0.0"
       refY="0.0"
       orient="auto"
       inkscape:stockid="Arrow2Sstart">
      <path
         transform="scale(0.3) translate(-2.3,0)"
         d="M 8.7185878,4.0337352 L -2.2072895,0.016013256 L 8.7185884,-4.0017078 C 6.9730900,-1.6296469 6.9831476,1.6157441 8.7185878,4.0337352 z "
         style="font-size:12.0;fill-rule:evenodd;stroke-width:0.62500000;stroke-linejoin:round"
         id="path4146" />
    </marker>
    <marker
       style="overflow:visible"
       id="DiamondS"
       refX="0.0"
       refY="0.0"
       orient="auto"
       inkscape:stockid="DiamondS">
      <path
         transform="scale(0.2)"
         style="fill-rule:evenodd;stroke:#000000;stroke-width:1.0pt;marker-start:none"
         d="M 0,-7.0710768 L -7.0710894,0 L 0,7.0710589 L 7.0710462,0 L 0,-7.0710768 z "
         id="path4202" />
    </marker>
    <marker
       orient="auto"
       refY="0"
       refX="0"
       id="RazorWire"
       inkscape:stockid="RazorWire">
       style=&quot;overflow:visible&quot;&gt;
      <path
   d="M 0.022727273,-0.74009011 L 0.022727273,0.69740989 L -7.7585227,3.0099099 L 10.678977,3.0099099 L 3.4914773,0.69740989 L 3.4914773,-0.74009011 L 10.741477,-2.8963401 L -7.7272727,-2.8963401 L 0.022727273,-0.74009011 z "
   style="fill:#808080;fill-opacity:1;fill-rule:evenodd;stroke:#000000;stroke-width:0.1pt"
   transform="scale(0.8,0.8)"
   id="path4286" />
</marker>
    <inkscape:perspective
       id="perspective5233"
       inkscape:persp3d-origin="16 : 10.666667 : 1"
       inkscape:vp_z="32 : 16 : 1"
       inkscape:vp_y="0 : 1000 : 0"
       inkscape:vp_x="0 : 16 : 1"
       sodipodi:type="inkscape:persp3d" />
    <inkscape:perspective
       id="perspective5412"
       inkscape:persp3d-origin="250 : 166.66667 : 1"
       inkscape:vp_z="500 : 250 : 1"
       inkscape:vp_y="0 : 1000 : 0"
       inkscape:vp_x="0 : 250 : 1"
       sodipodi:type="inkscape:persp3d" />
    <inkscape:perspective
       id="perspective5571"
       inkscape:persp3d-origin="202.85715 : 136.19048 : 1"
       inkscape:vp_z="405.71429 : 204.28572 : 1"
       inkscape:vp_y="0 : 1000 : 0"
       inkscape:vp_x="0 : 204.28572 : 1"
       sodipodi:type="inkscape:persp3d" />
    <inkscape:perspective
       id="perspective6552"
       inkscape:persp3d-origin="64 : 42.666667 : 1"
       inkscape:vp_z="128 : 64 : 1"
       inkscape:vp_y="0 : 1000 : 0"
       inkscape:vp_x="0 : 64 : 1"
       sodipodi:type="inkscape:persp3d" />
    <inkscape:perspective
       id="perspective8761"
       inkscape:persp3d-origin="238.5 : 114.33333 : 1"
       inkscape:vp_z="477 : 171.5 : 1"
       inkscape:vp_y="0 : 1000 : 0"
       inkscape:vp_x="0 : 171.5 : 1"
       sodipodi:type="inkscape:persp3d" />
    <inkscape:perspective
       id="perspective10479"
       inkscape:persp3d-origin="52.830002 : 33.539668 : 1"
       inkscape:vp_z="105.66 : 50.309502 : 1"
       inkscape:vp_y="0 : 1000 : 0"
       inkscape:vp_x="0 : 50.309502 : 1"
       sodipodi:type="inkscape:persp3d" />
    <marker
       viewBox="0 0 10 10"
       refY="5"
       refX="10"
       orient="auto"
       markerWidth="4"
       markerUnits="strokeWidth"
       markerHeight="3"
       id="ArrowStart">
      <path
         id="path1968"
         d="M 10 0 L 0 5 L 10 10 z" />
    </marker>
    <marker
       viewBox="0 0 10 10"
       refY="5"
       refX="0"
       orient="auto"
       markerWidth="4"
       markerUnits="strokeWidth"
       markerHeight="3"
       id="ArrowEnd">
      <path
         id="path1965"
         d="M 0 0 L 10 5 L 0 10 z" />
    </marker>
    <inkscape:perspective
       id="perspective10853"
       inkscape:persp3d-origin="223.9745 : 153.55566 : 1"
       inkscape:vp_z="447.94901 : 230.3335 : 1"
       inkscape:vp_y="0 : 1000 : 0"
       inkscape:vp_x="0 : 230.3335 : 1"
       sodipodi:type="inkscape:persp3d" />
    <inkscape:perspective
       id="perspective4473"
       inkscape:persp3d-origin="0.5 : 0.33333333 : 1"
       inkscape:vp_z="1 : 0.5 : 1"
       inkscape:vp_y="0 : 1000 : 0"
       inkscape:vp_x="0 : 0.5 : 1"
       sodipodi:type="inkscape:persp3d" />
  </defs>
  <g
     id="g1327">
    <path
       d="M 66.275,1.768 C 24.94,1.768 1.704,23.139 1.704,66.804 L 1.704,516.927 C 1.704,557.771 22.599,579.156 63.896,579.156 L 515.92,579.156 C 557.227,579.156 578.149,558.841 578.149,516.927 L 578.149,66.804 C 578.149,24.203 557.227,1.768 514.628,1.768 C 514.624,1.768 66.133,1.625 66.275,1.768 z "
       style="fill:#111;stroke:#eee;stroke-width:3.40799999"
       id="path1329" />
  </g>
  <path
     style="fill:#ffffff;fill-opacity:1;stroke-width:1"
     d="m 284.68128,484.65679 c -16.60355,-1.01881 -30.5498,-4.1846 -40.66088,-9.23002 -11.93928,-5.95767 -17.68484,-10.30566 -34.29132,-25.95024 -5.88912,-5.54797 -12.84258,-12.0096 -15.45218,-14.35917 l -4.7447,-4.27191 h -9.8751 -9.87509 v 8.5895 c 0,6.71045 -0.28314,8.87265 -1.2943,9.88381 -1.06694,1.06692 -3.57023,1.2943 -14.24916,1.2943 -8.9778,0 -13.25827,-0.3034 -13.94323,-0.98837 -1.43301,-1.433 -1.43301,-153.08387 0,-154.51685 0.68772,-0.68772 5.06358,-0.98839 14.38491,-0.98839 15.91644,0 15.10178,-0.5969 15.10178,11.06514 v 7.87882 h 9.07179 9.07178 l 15.32324,-14.20797 c 14.05482,-13.03185 23.49825,-20.86561 29.33658,-24.33603 l 2.26502,-1.34641 v -9.70621 -9.70624 h -9.92125 c -9.43546,0 -10.02023,-0.0991 -11.94293,-2.02168 -1.98671,-1.9867 -2.02169,-2.26212 -2.02169,-15.91761 0,-13.87267 0.002,-13.89927 2.12528,-15.8927 l 2.12529,-1.9968 74.68012,-0.24555 c 52.12194,-0.17136 75.61416,0.0257 77.77221,0.6518 5.28536,1.53388 5.70451,2.96462 5.40652,18.4517 -0.22591,11.74519 -0.46419,13.82416 -1.72954,15.09043 -1.21853,1.21943 -3.38459,1.53848 -12.76658,1.88041 l -11.29913,0.41184 -0.23403,8.38272 c -0.22135,7.92636 -0.13166,8.455 1.64727,9.70959 10.26238,7.23766 18.16421,13.93816 30.98118,26.27111 l 15.09778,14.5276 h 8.17035 8.17036 v -7.87882 c 0,-11.66204 -0.81466,-11.06514 15.10181,-11.06514 9.32132,0 13.69722,0.30067 14.38489,0.98839 1.43298,1.43298 1.43298,153.08385 0,154.51685 -0.68495,0.68497 -4.96546,0.98837 -13.94324,0.98837 -10.67889,0 -13.18221,-0.22738 -14.24917,-1.2943 -1.0111,-1.01116 -1.29429,-3.17336 -1.29429,-9.88381 v -8.5895 h -8.30165 -8.30166 l -15.79013,15.23623 c -17.61292,16.9951 -24.93952,22.87608 -34.46755,27.66668 -8.74854,4.39868 -13.8247,6.22266 -22.72182,8.1645 -6.49526,1.4176 -27.89263,3.54951 -31.49381,3.13783 -0.67951,-0.0775 -3.0887,-0.25493 -5.35373,-0.3939 z M 80.992472,449.62469 c -0.646724,-0.64673 -2.04822,-4.16065 -0.988386,-9.88383 v -8.89541 H 67.200073 c -12.496193,0 -12.852632,-0.0484 -14.825725,-2.02169 l -2.021675,-2.02169 v -54.35245 -54.35243 l 1.985861,-2.31099 1.985863,-2.31097 12.839842,-0.26389 12.839847,-0.26389 v -8.42562 c 0,-5.45507 0.348471,-8.77409 0.988386,-9.41399 1.3855,-1.38553 27.112818,-1.38553 28.498318,0 0.75445,0.75445 0.98838,18.96748 0.98838,76.95248 0,67.96011 -0.13639,76.10052 -1.2943,77.25844 -1.06695,1.06692 -3.57023,1.2943 -14.249174,1.2943 -8.977785,0 -13.258275,-0.3034 -13.943224,-0.98837 z m 389.822638,-0.30593 c -1.15788,-1.15792 -1.29429,-9.29833 -1.29429,-77.25844 0,-57.985 0.23392,-76.19803 0.98839,-76.95248 0.68692,-0.68689 5.03341,-0.98839 14.24916,-0.98839 9.21574,0 13.56231,0.3015 14.24916,0.98839 0.64079,0.6408 0.98838,3.97181 0.98838,9.47198 v 8.48359 h 12.4181 12.41817 l 2.40754,2.40761 2.40761,2.40759 v 54.46173 54.46173 l -2.02166,2.02169 c -1.97314,1.97309 -2.32953,2.02169 -14.8257,2.02169 h -12.80406 v 8.89541 c 0,5.8205 -0.34167,9.2371 -0.98838,9.88383 -0.68497,0.68497 -4.96546,0.98837 -13.94326,0.98837 -10.67887,0 -13.18222,-0.22738 -14.24916,-1.2943 z M 274.38567,172.63096 v -21.00311 h -10.99638 c -11.51648,0 -15.68,-0.81363 -17.02514,-3.32707 -0.44346,-0.8286 -0.80627,-6.14637 -0.80627,-11.81728 v -10.31074 l -37.27021,-0.24493 c -37.25319,-0.24484 -37.27196,-0.24585 -41.17284,-2.18435 -4.37694,-2.17505 -8.57392,-6.50217 -9.36545,-9.65584 -0.8138,-3.24241 0.11379,-8.99575 1.8136,-11.24928 2.2276,-2.95321 6.84189,-6.062118 10.63085,-7.162639 2.45238,-0.712292 33.71952,-0.894434 122.31213,-0.71243 l 119.0175,0.244496 3.85214,2.264472 c 12.16687,7.152321 11.26984,20.402971 -1.793,26.484931 -3.56345,1.65913 -5.18951,0.15368 -40.97659,1.97064 l -37.27022,0.24493 v 10.9526 c 0,14.61298 -5.29937,14.13117 -16.14597,14.37051 l -12.6818,0.27983 v 20.92918 20.92917 h -16.06118 -16.06117 z"
     id="path1160"
     inkscape:connector-curvature="0"
     sodipodi:nodetypes="sssccccssssssscccsccccscsccscccscscccccsscsscscccssscssscsccccccccssssssscscscsccccccccscscscccssscsssccsccsscsscccccc" />
</svg>

<svg width="580" height="580" viewBox="0 0 580 580" fill="none" xmlns="http://www.w3.org/2000/svg">
<g clip-path="url(#clip0)">
<path d="M66.2751 1.76815C24.9401 1.76815 1.7041 23.1391 1.7041 66.8041V516.927C1.7041 557.771 22.5991 579.156 63.8961 579.156H515.92C557.227 579.156 578.149 558.841 578.149 516.927V66.8041C578.149 24.2031 557.227 1.76815 514.628 1.76815C514.624 1.76815 66.1331 1.62515 66.2751 1.76815Z" fill="#111111" stroke="#EEEEEE" stroke-width="3.408"/>
<path d="M284.681 484.657C268.078 483.638 254.131 480.472 244.02 475.427C232.081 469.469 226.335 465.121 209.729 449.477C203.84 443.929 196.886 437.467 194.277 435.117L189.532 430.845H179.657H169.782V439.435C169.782 446.145 169.499 448.308 168.488 449.319C167.421 450.386 164.917 450.613 154.238 450.613C145.261 450.613 140.98 450.31 140.295 449.625C138.862 448.192 138.862 296.541 140.295 295.108C140.983 294.42 145.359 294.119 154.68 294.119C170.597 294.119 169.782 293.523 169.782 305.185V313.063H178.854H187.925L203.249 298.855C217.304 285.824 226.747 277.99 232.585 274.519L234.85 273.173V263.467V253.761H224.929C215.494 253.761 214.909 253.661 212.986 251.739C210.999 249.752 210.964 249.477 210.964 235.821C210.964 221.949 210.966 221.922 213.09 219.929L215.215 217.932L289.895 217.686C342.017 217.515 365.509 217.712 367.667 218.338C372.953 219.872 373.372 221.303 373.074 236.79C372.848 248.535 372.61 250.614 371.344 251.88C370.126 253.1 367.96 253.419 358.578 253.761L347.279 254.172L347.045 262.555C346.823 270.481 346.913 271.01 348.692 272.265C358.954 279.502 366.856 286.203 379.673 298.536L394.771 313.063H402.941H411.112V305.185C411.112 293.523 410.297 294.119 426.213 294.119C435.535 294.119 439.911 294.42 440.598 295.108C442.031 296.541 442.031 448.192 440.598 449.625C439.913 450.31 435.633 450.613 426.655 450.613C415.976 450.613 413.473 450.386 412.406 449.319C411.395 448.308 411.112 446.145 411.112 439.435V430.845H402.81H394.508L378.718 446.082C361.105 463.077 353.779 468.958 344.251 473.748C335.502 478.147 330.426 479.971 321.529 481.913C315.033 483.33 293.636 485.462 290.035 485.051C289.355 484.973 286.946 484.796 284.681 484.657V484.657ZM80.9923 449.625C80.3456 448.978 78.9441 445.464 80.004 439.741V430.845H67.1999C54.7037 430.845 54.3473 430.797 52.3742 428.824L50.3525 426.802V372.45V318.097L52.3384 315.786L54.3243 313.475L67.1641 313.211L80.004 312.947V304.522C80.004 299.067 80.3524 295.748 80.9923 295.108C82.3778 293.722 108.105 293.722 109.491 295.108C110.245 295.862 110.479 314.075 110.479 372.06C110.479 440.02 110.343 448.161 109.185 449.319C108.118 450.386 105.615 450.613 94.9356 450.613C85.9578 450.613 81.6773 450.31 80.9923 449.625V449.625ZM470.815 449.319C469.657 448.161 469.521 440.02 469.521 372.06C469.521 314.075 469.755 295.862 470.509 295.108C471.196 294.421 475.542 294.119 484.758 294.119C493.974 294.119 498.321 294.421 499.007 295.108C499.648 295.749 499.996 299.08 499.996 304.58V313.063H512.414H524.832L527.24 315.471L529.647 317.879V372.34V426.802L527.626 428.824C525.652 430.797 525.296 430.845 512.8 430.845H499.996V439.741C499.996 445.561 499.654 448.978 499.007 449.625C498.322 450.31 494.042 450.613 485.064 450.613C474.385 450.613 471.882 450.386 470.815 449.319V449.319ZM274.386 172.631V151.628H263.389C251.873 151.628 247.709 150.814 246.364 148.301C245.921 147.472 245.558 142.154 245.558 136.484V126.173L208.288 125.928C171.034 125.683 171.016 125.682 167.115 123.743C162.738 121.568 158.541 117.241 157.749 114.088C156.935 110.845 157.863 105.092 159.563 102.838C161.79 99.8852 166.405 96.7762 170.194 95.6757C172.646 94.9634 203.913 94.7813 292.506 94.9633L411.523 95.2078L415.375 97.4723C427.542 104.625 426.645 117.875 413.582 123.957C410.019 125.616 408.393 124.111 372.606 125.928L335.336 126.173V137.125C335.336 151.738 330.036 151.257 319.19 151.496L306.508 151.776V172.705V193.634H290.447H274.386V172.631Z" fill="white"/>
</g>
<defs>
<clipPath id="clip0">
<path d="M0 0H580V580H0V0Z" fill="white"/>
</clipPath>
</defs>
</svg>
